!!!OTL: 92. Freylekhs
!!!Genre:	Freylekhs
!!!Mode:	Freygish
!!!Listening/dance:	dance
!!!One_Mode:	yes
**kern
*part1
*staff1
*clefG2
*k[b-e-a-]
*G:frey
*M2/4
*>A
=1-
16gLL
16g
16g
16gJJ
(>16gLL
16dd)
16dd
16ddJJ
=2
(>16gLL
16dd)
16dd
16ddJJ
(>16gLL
16dd)
16dd
16ddJJ
=3
8ee-L
8dd
8cc
8bnJ
=4
(>16ccLL
16ddJJ
4bn)
8b
=5
16gLL
16g
16g
16gJJ
(<16gLL
16bn)
16b
16bJJ
=6
(<16gLL
16bn)
16b
16bJJ
(<16gLL
16b)
16b
16bJJ
=7
8ccL
8bn
8a-
8gJ
=8
(<16fLL
16a-JJ)
4g
8g
=9:|!|:
*>B
4g
(>8.bnL
16ddJk)
=10
8cc
4bn
8b
=11
8a-L
8g
8f
8a-J
=12
8gL
8ccJ
16bnLL
16a-
16g
16fJJ
=13
4g
8.bnL
16ddJk
=14
8cc
4bn
8b
=15
8a-L
8g
8f
8a-J
*>B1
=16
4g
4gg
*>B2
=17:|!
2g
==
*-
